X:1
T:198 - Aleluia
T:Letra: William Augustus Ogden (1841-1897)
T:Trad.: SalomÃ£o Luiz Ginsburg (1867-1927)
T:MÃºsica: William Augustus Ogden (1841-1897)
L:1/8
M:4/4
Q:1/4=90
K:G
V:1
 DD | "G"GG G3/2G/ "D7"F2 E3/2D/ | "G"d4 "C"c2 "(Am)"A2 | "G/D"GG GG "D"F2 "D7"A2 | "G"G4 z2 DD | "G"GG GG "D7"F2 E3/2D/ | "G"d4 "C"c2 "(Am)"AA | "G/D"GG GG "D"F2 "D7"A2 | "G"G4 z2 || d3/2d/ | "G"d4- dB AG | "D"d6 d3/2d/ | "G"d2 B2 "D"A2 "A7"^c2 | "D"d4 z2 DD | "G"GG GG "D7"F2 E3/2D/ | "G"d4 "C"c2 "(Am)"AA | "G/D"GG GG "D"F2 "D7"A2 | "G"G4 z2 |]
w: 1.~A men-sa-gem do Se-nhor; a-le-lui-a! Ã‰ chei-a de per-dÃ£o ea-mor! Cris-to sal-vao pe-ca-dor; a-le-lui-a! Sal-vaa-tÃ© por mei-o deum o-lhar! Oh, o-lhai,_ pois, e vi-vei!    Con-fi-ai sÃ³ em Je-sus!    E-le sal-vao pe-ca-dor; a-le-lui-a!    Sal-vaa-tÃ© por mei-o deum o-lhar!
w: 2.~Vos-sa cul-pa jÃ¡ le-vou; a-le-lui-a! Je-sus a sa-tis-fez na cruz; Su-a vi-da jÃ¡en-tre-gou, a-le-lui-a! Pa-ra vos a-pre-sen-tar a Deus.
w: 3.~Su-a gra-Ã§a nos le-gou; a-le-lui-a! E-ter-na vi-da lÃ¡ nos cÃ©us; Con-fi-ai sÃ³ em Je-sus; a-le-lui-a! Con-ver-tei-vos ho-je mes-moa Deus!
w: 4.~A-cei-tai a sal-va-Ã§Ã£o; a-le-lui-a! Se-gui os pas-sos do Se-nhor; Pro-cla-mai o seu per-dÃ£o; a-le-lui-a! E-xal-tai o gran-de Re-den-tor!
W: 
W:
W: 1. A mensagem do Senhor; alelui-a!
W: Ã‰ cheia de perdÃ£o e amor!
W: Cristo salva o pecador; alelui-a!
W: Salva atÃ© por meio de um olhar!
W: 
W:    (Estribilho)
W:    Oh, olhai, pois, e vivei!
W:    Confiai sÃ³ em Jesus!
W:    Ele salva o pecador; alelui-a!
W:    Salva atÃ© por meio de um olhar!
W: 
W: 2. Vossa culpa jÃ¡ levou; alelui-a!
W: Jesus a satisfez na cruz;
W: Sua vida jÃ¡ entregou, alelui-a!
W: Para vos apresentar a Deus.
W: 
W:
W:
W: 3. Sua graÃ§a nos legou; alelui-a!
W: Eterna vida lÃ¡ nos cÃ©us;
W: Confiai sÃ³ em Jesus; alelui-a!
W: Convertei-vos hoje mesmo a Deus!
W: 
W: 4. Aceitai a salvaÃ§Ã£o; alelui-a!
W: Segui os passos do Senhor;
W: Proclamai o seu perdÃ£o; alelui-a!
W: Exaltai o grande Redentor!
W:         
W: 

